static/img/company-logos/simpl.svg

<svg viewBox="0 0 118 40" fill="none" xmlns="http://www.w3.org/2000/svg">
    <g clip-path="url(#clip0_3856_50753)">
        <path
            d="M28.0074 10.2888L31.9561 6.33837L31.0978 5.48119C24.1719 -1.44589 12.9012 -1.44586 5.9753 5.48007C-0.664908 12.1186 -0.935773 22.7435 5.14785 29.7123L1.19915 33.6626L2.05632 34.5198C8.98226 41.4458 20.2535 41.4458 27.18 34.5198C33.8185 27.8831 34.0905 17.2576 28.0069 10.2876L28.0074 10.2888ZM7.69022 7.19615C13.3818 1.50454 22.469 1.23024 28.488 6.37153L26.2354 8.62301C21.4467 4.69375 14.3636 4.96746 9.89029 9.44018C5.41757 13.9112 5.14728 20.9937 9.0754 25.7853L6.86676 27.9951C1.72545 21.9749 2.00032 12.8877 7.68964 7.19727L7.69022 7.19615ZM25.4634 32.8038C19.7729 38.4954 10.6846 38.7697 4.66555 33.6296L6.91705 31.3769C11.7075 35.3073 18.79 35.0341 23.2627 30.5608C27.736 26.0898 28.0057 19.0073 24.0782 14.2158L26.2874 12.0077C31.4287 18.0267 31.1538 27.1133 25.4645 32.8043L25.4634 32.8038ZM67.0412 14.5752H70.6316V17.3422C72.47 13.6666 78.5439 12.8414 79.9045 17.3136H79.9634C81.216 14.8507 84.2818 13.6678 86.8927 14.4656C89.2968 15.1999 90.0014 17.6559 90.0014 19.9331V29.5878H86.2641V20.6389C86.2641 19.0749 85.8561 17.5205 83.9766 17.6445C82.1366 17.7646 80.9743 19.3817 80.5822 21.0515C80.4354 21.6401 80.4062 22.287 80.4062 22.9944V29.5866H76.6678V20.6395C76.6678 18.9823 76.1878 17.4125 74.2003 17.6633C72.4363 17.8851 71.3534 19.4668 70.9568 21.0806C70.8099 21.6406 70.7808 22.3172 70.7808 22.995V29.5872H67.0424V14.5752L67.0412 14.5752ZM116.889 26.4076C115.919 26.4076 115.358 25.9962 115.358 24.3481V8.68813L111.649 12.4009V24.9075C111.649 29.2059 114.209 29.734 116.27 29.734C116.888 29.734 117.447 29.6482 117.447 29.6482V26.3796C117.447 26.3796 117.183 26.4081 116.889 26.4081L116.889 26.4076ZM107.264 17.1878C105.953 15.0563 103.566 13.9951 101.097 14.262C99.5063 14.4335 97.8411 15.262 97.0279 16.6952V14.5751H93.6124V36.6867L97.3508 32.938V27.8807C98.6045 29.7082 101.09 30.2294 103.147 29.7825C108.523 28.6167 109.855 21.4022 107.264 17.1889L107.264 17.1878ZM100.971 26.7927C98.6765 26.7927 97.3896 24.6869 97.2479 22.6063C97.1279 20.8651 97.5993 18.8004 99.2308 17.8804C100.578 17.1204 102.362 17.3352 103.454 18.4404C105.838 20.8605 104.976 26.7927 100.971 26.7927ZM59.697 14.5695H63.436V29.5871H59.697V14.5695ZM56.9815 22.5532C56.4032 19.936 53.9243 18.6856 51.6613 17.7358C50.1681 17.109 47.2006 16.3273 47.2852 14.2403C47.3698 12.1751 49.7921 11.6414 51.4425 11.926C52.3739 12.0871 53.2951 12.462 54.114 12.9763L56.6009 10.4882C54.3637 8.33962 50.4521 7.7927 47.6246 8.81158C44.5731 9.9122 42.4667 13.334 43.8777 16.4958C44.916 18.8205 47.5646 19.8005 49.7384 20.7462C51.4082 21.472 54.3431 22.752 53.0185 25.1076C52.0756 26.7859 49.6584 26.5899 48.1172 26.0539C47.2305 25.745 46.3999 25.2941 45.6577 24.7189L43.1593 27.2179C45.3377 29.4214 48.9321 30.3511 51.9122 29.7871C55.3026 29.1471 57.7524 26.0482 56.9809 22.5526"
            fill="#0D102B" />
    </g>
    <defs>
        <clipPath id="clip0_3856_50753">
            <rect width="117.237" height="40" fill="white" transform="translate(0.496094)" />
        </clipPath>
    </defs>
</svg>

<svg viewBox="0 0 118 40" fill="none" xmlns="http://www.w3.org/2000/svg">
    <g clip-path="url(#a)">
        <path
            d="m28 10.29 3.96-3.95-.86-.86a17.78 17.78 0 0 0-25.12 0 17.78 17.78 0 0 0-.83 24.23L1.2 33.66l.86.86a17.79 17.79 0 0 0 25.12 0 17.78 17.78 0 0 0 .83-24.23ZM7.7 7.19a15.36 15.36 0 0 1 20.8-.82l-2.25 2.25A12.2 12.2 0 0 0 9.08 25.8l-2.21 2.2a15.36 15.36 0 0 1 .82-20.8ZM25.46 32.8a15.36 15.36 0 0 1-20.8.83l2.26-2.25a12.2 12.2 0 0 0 17.16-17.16l2.2-2.21a15.36 15.36 0 0 1-.82 20.8Zm41.58-18.22h3.6v2.76c1.83-3.67 7.9-4.5 9.26-.03h.06a5.96 5.96 0 0 1 6.93-2.84c2.4.73 3.11 3.19 3.11 5.46v9.66h-3.74v-8.95c0-1.57-.4-3.12-2.28-3-1.84.12-3 1.74-3.4 3.41a8.1 8.1 0 0 0-.17 1.94v6.6h-3.74v-8.95c0-1.66-.48-3.23-2.47-2.98-1.76.23-2.85 1.8-3.24 3.42a7.86 7.86 0 0 0-.18 1.92v6.59h-3.74V14.58ZM116.9 26.4c-.97 0-1.53-.41-1.53-2.06V8.69l-3.71 3.71v12.5c0 4.3 2.56 4.83 4.62 4.83.62 0 1.18-.08 1.18-.08v-3.27s-.27.03-.56.03Zm-9.63-9.22a6.33 6.33 0 0 0-6.16-2.93c-1.6.17-3.26 1-4.07 2.44v-2.12H93.6v22.1l3.74-3.74v-5.06c1.25 1.83 3.74 2.35 5.8 1.9 5.37-1.16 6.7-8.38 4.11-12.6Zm-6.29 9.6c-2.3 0-3.58-2.1-3.72-4.18-.12-1.74.35-3.81 1.98-4.73a3.57 3.57 0 0 1 4.22.56c2.39 2.42 1.53 8.35-2.48 8.35ZM59.7 14.57h3.74v15.02H59.7V14.57Zm-2.72 7.98c-.58-2.61-3.06-3.86-5.32-4.81-1.5-.63-4.46-1.41-4.37-3.5.08-2.06 2.5-2.6 4.15-2.31a7.5 7.5 0 0 1 2.67 1.05l2.5-2.5c-2.25-2.14-6.16-2.69-8.99-1.67-3.05 1.1-5.15 4.52-3.74 7.69 1.04 2.32 3.68 3.3 5.86 4.25 1.67.72 4.6 2 3.28 4.36-.94 1.68-3.36 1.48-4.9.94a8.67 8.67 0 0 1-2.46-1.33l-2.5 2.5c2.18 2.2 5.77 3.13 8.75 2.57 3.4-.64 5.84-3.74 5.07-7.24"
            fill="#0D102B" />
    </g>
    <defs>
        <clipPath id="a">
            <path fill="#fff" transform="translate(.5)" d="M0 0h117.24v40H0z" />
        </clipPath>
    </defs>
</svg>
